static/images/user-logos/deliveroo.svg

<svg height="110" viewBox="0 0 400 110" width="400" xmlns="http://www.w3.org/2000/svg"><path d="m146.09431 82.39878h9.119254l-1.510678-7.25953v-43.2797097h-8.723304v19.7400324c-2.624028-3.1201256-6.2331-4.9505804-10.49473-4.9505804-8.724684 0-15.479278 7.3926025-15.479278 18.2479216 0 10.8539033 6.754594 18.2479215 15.479278 18.2479215 4.329231 0 8.066608-1.8998224 10.692015-5.1572675l.917443 4.4097964zm172.440815-26.0482356c1.771425 0 3.410408.4728321 4.918327 1.5572315l4.133326-9.562817c-1.903869-1.2231345-4.133326-1.7639185-6.296562-1.7639185-3.936041 0-7.215386 1.8262078-9.3124 5.2238037l-.920203-4.4140433h-8.986811l1.443077 6.8518184v28.1504981h8.719166v-22.315127c1.18095-2.3075339 3.411787-3.7302772 6.297941-3.7302772v.0028313zm25.578059 17.3645466c-5.046631 0-8.788147-3.4584695-8.788147-8.8195928 0-5.4262439 3.741516-8.8167615 8.788147-8.8167615 5.118371 0 8.792285 3.3905176 8.792285 8.8167615 0 5.3611233-3.673914 8.8195928-8.790906 8.8195928zm-216.647812-8.8195928c0-5.4262439 3.738756-8.8167615 8.788146-8.8167615 5.118371 0 8.790906 3.3905176 8.790906 8.8167615 0 5.3611233-3.672535 8.8195928-8.788147 8.8195928-5.04939 0-8.790905-3.4584695-8.790905-8.8195928zm255.283924 8.8195928c-5.04939 0-8.788146-3.4584695-8.788146-8.8195928 0-5.4262439 3.738756-8.8167615 8.788146-8.8167615 5.115612 0 8.788147 3.3905176 8.788147 8.8167615 0 5.3611233-3.672535 8.8195928-8.788147 8.8195928zm-206.351746-18.1799696c4.525136 0 7.477512 2.1702144 8.394956 6.1722993h-16.789912c.983665-4.0020849 3.934661-6.1722993 8.393576-6.1722993zm104.354064 0c4.527896 0 7.480272 2.1702144 8.397716 6.1722993h-16.789913c.983666-4.0020849 3.934662-6.1722993 8.393577-6.1722993zm-42.565256 26.8636586h14.036201l9.119254-35.0037323h-9.511064l-6.688373 28.3557695-6.691132-28.3557695h-9.38138l9.119254 35.0023166zm-22.498758 0h8.719166v-35.0051479h-8.719166zm-37.953203.6483745c4.856244 0 9.643507-1.3590384 13.64439-4.0035005l-3.344186-7.7323621c-3.149661 1.6959666-6.624911 2.7138297-10.167761 2.7138297-4.589979 0-7.804481-1.8318705-9.182717-5.2238037h24.529552c.262127-1.2882552.395949-2.5765103.395949-4.1379888 0-10.8539033-7.280227-18.1120177-17.054798-18.1120177-9.836654 0-17.052039 7.3260663-17.052039 18.2479216 0 11.1242954 7.149164 18.2479215 18.234369 18.2479215zm222.265603-18.1516563c0-10.8539034-7.346449-18.2479216-17.250704-18.2479216-9.905634 0-17.250703 7.3940182-17.250703 18.2479216 0 10.855319 7.345069 18.2479215 17.249324 18.2479215 9.905634 0 17.250703-7.3926025 17.250703-18.2479215zm-118.064676 18.2479215c4.850725 0 9.639368-1.356207 13.64439-4.0020849l-3.348325-7.7366091c-3.148281 1.6959667-6.62491 2.7124141-10.167761 2.7124141-4.589979 0-7.804481-1.8290391-9.182716-5.2238037h24.53231c.262127-1.2882551.391811-2.5765103.391811-4.1365731 0-10.8539034-7.281607-18.1120177-17.054798-18.1120177-9.836654 0-17.05204 7.3246506-17.05204 18.2479216 0 11.1242953 7.150544 18.2479215 18.235749 18.2479215v.0028313zm62.179239 0c9.905635 0 17.249324-7.3926025 17.249324-18.2479215 0-10.8539034-7.345069-18.2479216-17.250703-18.2479216-9.905635 0-17.250704 7.3940182-17.250704 18.2479216 0 10.855319 7.346449 18.2479215 17.249324 18.2479215zm-144.956128-.7460554h8.721925v-50.5392397h-8.723305v50.5392397zm20.921859-39.8226558c3.082059 0 5.44396-2.4434377 5.44396-5.6994672 0-3.2560294-2.359142-5.6980515-5.442581-5.6980515-3.148281 0-5.510181 2.4420221-5.510181 5.6980515 0 3.2560295 2.36328 5.6980515 5.511561 5.6980515zm-149.8647982-42.57329284-4.9942056 48.50351344-8.5191214-40.89289852-26.7093428 5.79573242 8.5149826 40.8900672-38.5078086 8.3524233 6.80150102 32.663638 67.71701338 14.6861085 15.4861763-35.4935523 7.3699023-71.59017785-27.1618564-2.91626985.0027592.00283133zm-21.3978257 70.36279634c-1.3961702 1.3052431-3.2420948 1.1849116-5.2011478.519549-1.9549142-.6625312-2.8240716-3.07624-2.0832184-5.9939255.5518459-2.1659674 3.1496606-2.4915703 4.4492578-2.514221.4939021-.008494.9795265.0934339 1.4279013.300121.9188235.4246995 2.475029 1.3307251 2.7909608 2.7124141.4552729 1.9932563.0165553 3.6665723-1.3796148 4.9718154h-.0027593v.0028313zm19.6043265 2.2509073c-1.0140169 1.7978945-3.6766735 2.0357262-6.296562.7276518-1.765907-.8833749-1.7521108-3.1314509-1.5589648-4.5018146.102523-.7474402.3978295-1.4531907.8553612-2.0442203.630484-.815423 1.6831301-1.8785874 2.8999504-1.9111477 1.9783676-.0537952 3.6808123.8522303 4.6424038 2.4915704.9657304 1.6336774.4828652 3.4358189-.5339109 5.2379604z" fill="#00ccbc"/></svg>

<?xml version="1.0" encoding="UTF-8"?>
<svg width="400px" height="110px" viewBox="0 0 400 110" version="1.1" xmlns="http://www.w3.org/2000/svg" xmlns:xlink="http://www.w3.org/1999/xlink">
    <title>Logos/wordmark teal</title>
    <desc>Created with Sketch.</desc>
    <defs></defs>
    <g id="Page-1" stroke="none" stroke-width="1" fill="none" fill-rule="evenodd">
        <g id="Artboard" transform="translate(0.000000, -45.000000)" fill="#00CCBC" fill-rule="nonzero">
            <g id="Logos/wordmark-teal" transform="translate(0.000000, 45.000000)">
                <path d="M146.09431,82.39878 L155.213564,82.39878 L153.702886,75.13925 L153.702886,31.8595403 L144.979582,31.8595403 L144.979582,51.5995727 C142.355554,48.4794471 138.746482,46.6489923 134.484852,46.6489923 C125.760168,46.6489923 119.005574,54.0415948 119.005574,64.8969139 C119.005574,75.7508172 125.760168,83.1448354 134.484852,83.1448354 C138.814083,83.1448354 142.55146,81.245013 145.176867,77.9875679 L146.09431,82.3973643 L146.09431,82.39878 Z M318.535125,56.3505444 C320.30655,56.3505444 321.945533,56.8233765 323.453452,57.9077759 L327.586778,48.3449589 C325.682909,47.1218244 323.453452,46.5810404 321.290216,46.5810404 C317.354175,46.5810404 314.07483,48.4072482 311.977816,51.8048441 L311.057613,47.3908008 L302.070802,47.3908008 L303.513879,54.2426192 L303.513879,82.3931173 L312.233045,82.3931173 L312.233045,60.0779903 C313.413995,57.7704564 315.644832,56.3477131 318.530986,56.3477131 L318.530986,56.3505444 L318.535125,56.3505444 Z M344.113184,73.715091 C339.066553,73.715091 335.325037,70.2566215 335.325037,64.8954982 C335.325037,59.4692543 339.066553,56.0787367 344.113184,56.0787367 C349.231555,56.0787367 352.905469,59.4692543 352.905469,64.8954982 C352.905469,70.2566215 349.231555,73.715091 344.114563,73.715091 L344.113184,73.715091 Z M127.465372,64.8954982 C127.465372,59.4692543 131.204128,56.0787367 136.253518,56.0787367 C141.371889,56.0787367 145.044424,59.4692543 145.044424,64.8954982 C145.044424,70.2566215 141.371889,73.715091 136.256277,73.715091 C131.206887,73.715091 127.465372,70.2566215 127.465372,64.8954982 Z M382.749296,73.715091 C377.699906,73.715091 373.96115,70.2566215 373.96115,64.8954982 C373.96115,59.4692543 377.699906,56.0787367 382.749296,56.0787367 C387.864908,56.0787367 391.537443,59.4692543 391.537443,64.8954982 C391.537443,70.2566215 387.864908,73.715091 382.749296,73.715091 Z M176.39755,55.5351214 C180.922686,55.5351214 183.875062,57.7053358 184.792506,61.7074207 L168.002594,61.7074207 C168.986259,57.7053358 171.937255,55.5351214 176.39617,55.5351214 L176.39755,55.5351214 Z M280.751614,55.5351214 C285.27951,55.5351214 288.231886,57.7053358 289.14933,61.7074207 L272.359417,61.7074207 C273.343083,57.7053358 276.294079,55.5351214 280.752994,55.5351214 L280.751614,55.5351214 Z M238.186358,82.39878 L252.222559,82.39878 L261.341813,47.3950477 L251.830749,47.3950477 L245.142376,75.7508172 L238.451244,47.3950477 L229.069864,47.3950477 L238.189118,82.3973643 L238.186358,82.39878 Z M215.6876,82.39878 L224.406766,82.39878 L224.406766,47.3936321 L215.6876,47.3936321 L215.6876,82.39878 Z M177.734397,83.0471545 C182.590641,83.0471545 187.377904,81.6881161 191.378787,79.043654 L188.034601,71.3112919 C184.88494,73.0072585 181.40969,74.0251216 177.86684,74.0251216 C173.276861,74.0251216 170.062359,72.1932511 168.684123,68.8013179 L193.213675,68.8013179 C193.475802,67.5130627 193.609624,66.2248076 193.609624,64.6633291 C193.609624,53.8094258 186.329397,46.5513114 176.554826,46.5513114 C166.718172,46.5513114 159.502787,53.8773777 159.502787,64.799233 C159.502787,75.9235284 166.651951,83.0471545 177.737156,83.0471545 L177.734397,83.0471545 Z M400,64.8954982 C400,54.0415948 392.653551,46.6475766 382.749296,46.6475766 C372.843662,46.6475766 365.498593,54.0415948 365.498593,64.8954982 C365.498593,75.7508172 372.843662,83.1434197 382.747917,83.1434197 C392.653551,83.1434197 399.99862,75.7508172 399.99862,64.8954982 L400,64.8954982 Z M281.935324,83.1434197 C286.786049,83.1434197 291.574692,81.7872127 295.579714,79.1413348 L292.231389,71.4047257 C289.083108,73.1006924 285.606479,74.1171398 282.063628,74.1171398 C277.473649,74.1171398 274.259147,72.2881007 272.880912,68.8933361 L297.413222,68.8933361 C297.675349,67.605081 297.805033,66.3168258 297.805033,64.756763 C297.805033,53.9028596 290.523426,46.6447453 280.750235,46.6447453 C270.913581,46.6447453 263.698195,53.9693959 263.698195,64.8926669 C263.698195,76.0169622 270.848739,83.1405884 281.933944,83.1405884 L281.933944,83.1434197 L281.935324,83.1434197 Z M344.114563,83.1434197 C354.020198,83.1434197 361.363887,75.7508172 361.363887,64.8954982 C361.363887,54.0415948 354.018818,46.6475766 344.113184,46.6475766 C334.207549,46.6475766 326.86248,54.0415948 326.86248,64.8954982 C326.86248,75.7508172 334.208929,83.1434197 344.111804,83.1434197 L344.114563,83.1434197 Z M199.158435,82.3973643 L207.88036,82.3973643 L207.88036,31.8581246 L199.157055,31.8581246 L199.157055,82.3973643 L199.158435,82.3973643 Z M220.080294,42.5747085 C223.162353,42.5747085 225.524254,40.1312708 225.524254,36.8752413 C225.524254,33.6192119 223.165112,31.1771898 220.081673,31.1771898 C216.933392,31.1771898 214.571492,33.6192119 214.571492,36.8752413 C214.571492,40.1312708 216.934772,42.5732928 220.083053,42.5732928 L220.080294,42.5747085 Z M70.2154958,0.00141566498 L65.2212902,48.5049291 L56.7021688,7.61203058 L29.992826,13.407763 L38.5078086,54.2978302 L0,62.6502535 L6.80150102,95.3138915 L74.5185144,110 L90.0046907,74.5064477 L97.374593,2.91626985 L70.2127366,0 L70.2154958,0.00283132995 L70.2154958,0.00141566498 Z M48.8176701,70.364212 C47.4214999,71.6694551 45.5755753,71.5491236 43.6165223,70.883761 C41.6616081,70.2212298 40.7924507,67.807521 41.5333039,64.8898355 C42.0851498,62.7238681 44.6829645,62.3982652 45.9825617,62.3756145 C46.4764638,62.3671205 46.9620882,62.4690484 47.410463,62.6757355 C48.3292865,63.100435 49.885492,64.0064606 50.2014238,65.3881496 C50.6566967,67.3814059 50.2179791,69.0547219 48.821809,70.359965 L48.8190497,70.359965 L48.8190497,70.3627963 L48.8176701,70.364212 Z M68.4219966,72.6151193 C67.4079797,74.4130138 64.7453231,74.6508455 62.1254346,73.3427711 C60.3595276,72.4593962 60.3733238,70.2113202 60.5664698,68.8409565 C60.6689928,68.0935163 60.9642993,67.3877658 61.421831,66.7967362 C62.052315,65.9813132 63.1049611,64.9181488 64.3217814,64.8855885 C66.300149,64.8317933 68.0025937,65.7378188 68.9641852,67.3771589 C69.9299156,69.0108363 69.4470504,70.8129778 68.4302743,72.6151193 L68.4219966,72.6151193 Z" id="Shape"></path>
            </g>
        </g>
    </g>
</svg>
